icon/ir/dashboard-dots.svg

<svg stroke-width="1.5" viewBox="0 0 24 24" fill="none" xmlns="http://www.w3.org/2000/svg" height="1em" width="1em">
  <path d="M12 7.01L12.01 6.99889" stroke="currentColor" stroke-linecap="round" stroke-linejoin="round"/>
  <path d="M16 9.01L16.01 8.99889" stroke="currentColor" stroke-linecap="round" stroke-linejoin="round"/>
  <path d="M8 9.01L8.01 8.99889" stroke="currentColor" stroke-linecap="round" stroke-linejoin="round"/>
  <path d="M18 13.01L18.01 12.9989" stroke="currentColor" stroke-linecap="round" stroke-linejoin="round"/>
  <path d="M6 13.01L6.01 12.9989" stroke="currentColor" stroke-linecap="round" stroke-linejoin="round"/>
  <path d="M17 17.01L17.01 16.9989" stroke="currentColor" stroke-linecap="round" stroke-linejoin="round"/>
  <path d="M7 17.01L7.01 16.9989" stroke="currentColor" stroke-linecap="round" stroke-linejoin="round"/>
  <path d="M12 17L13 11" stroke="currentColor" stroke-linecap="round" stroke-linejoin="round"/>
  <path d="M8.5 20.001H4C2.74418 18.3295 2 16.2516 2 14C2 8.47715 6.47715 4 12 4C17.5228 4 22 8.47715 22 14C22 16.2516 21.2558 18.3295 20 20.001L15.5 20" stroke="currentColor" stroke-linecap="round" stroke-linejoin="round"/>
  <path d="M12 23C13.6569 23 15 21.6569 15 20C15 18.3431 13.6569 17 12 17C10.3431 17 9 18.3431 9 20C9 21.6569 10.3431 23 12 23Z" stroke="currentColor" stroke-linecap="round" stroke-linejoin="round"/>
</svg>

<svg width="24" height="24" stroke-width="1.5" fill="none" xmlns="http://www.w3.org/2000/svg"><path d="m12 7.01.01-.011M16 9.01l.01-.011M8 9.01l.01-.011M18 13.01l.01-.011M6 13.01l.01-.011M17 17.01l.01-.011M7 17.01l.01-.011M12 17l1-6M8.5 20.001H4A9.956 9.956 0 0 1 2 14C2 8.477 6.477 4 12 4s10 4.477 10 10c0 2.252-.744 4.33-2 6.001L15.5 20" stroke="currentColor" stroke-linecap="round" stroke-linejoin="round"/><path d="M12 23a3 3 0 1 0 0-6 3 3 0 0 0 0 6Z" stroke="currentColor" stroke-linecap="round" stroke-linejoin="round"/></svg>
